X:1
T:Gweedore, 66.66.88
T:Gweedore, 66.66.88
T:Samuel Sebastian Wesley, 1864
T:Public Domain Courtesy of the Cyber Hymnal™
C:Samuel Sebastian Wesley, 1864
Z:Public Domain
Z:Courtesy of the Cyber Hymnal™
%%score ( 1 2 ) ( 3 4 )
L:1/8
Q:1/4=110
M:none
K:D
V:1 treble 
V:2 treble 
V:3 bass 
V:4 bass 
V:1
 [DF]2 | [EG]2 [DF]2 E2 [EB]2 | A4 [Gd]4 | [Fd]2 [FA]2 [DF]2 ([CE]D) | D6 [CE]2 | %5
 [DF]2 [FB]2 [FA]2 [^E^G]2 | F4 [^DF]4 | [EG]2 [GA]2 [GB]2 [FA]2 | G6 [Dd]2 | %9
 [Fc]2 [GB]2 A2 [DA]2 | G2 [DF]2 [CE]2 [CA]2 | D2 [EG]2 F2 [B,E]2 | [A,D]2 [A,C]2 [A,D]2 |] %13
V:2
 x2 | x4 E2 x2 | A4 x4 | x7 D | D6 x2 | x8 | F4 x4 | x8 | G6 x2 | x4 A2 x2 | (B,C) x6 | %11
 D2 (DC) x4 | x6 |] %13
V:3
 [D,A,]2 | [C,A,]2 [D,A,]2 [G,B,]2 [G,C]2 | [F,D]4 [B,D]4 | [A,D]2 [A,D]2 [A,,A,]2 (G,F,) | %4
 [D,F,]6 [A,,A,]2 | [D,A,]2 [B,,D]2 [C,C]2 [C,B,]2 | [F,A,]4 [B,,B,]4 | %7
 [E,B,]2 [=C,E]2 [D,D]2 [D,=C]2 | [G,B,]6 [B,D]2 | [A,D]2 [G,D]2 [F,D]2 [F,A,]2 | %10
 [E,A,]2 [D,A,]2 A,2 [F,A,]2 | [B,,F,]2 [C,A,]2 [D,A,]2 [G,,G,]2 | [A,,F,]2 [A,,G,]2 [D,F,]2 |] %13
V:4
 x2 | x8 | x8 | x6 A,,2 | x8 | x8 | x8 | x8 | x8 | x8 | x4 A,2 x2 | x8 | x6 |] %13

